X: 1
T: Pride Of The North, The
M: 4/4
L: 1/8
R: hornpipe
K: Gmaj
|:GDB,D GBAG|F2A2A2 dc|BGFG dGFG|F2D2D2 GF|
GDB,D CEA,D|B,DGB dBgd|ecAF DFAc|1B2G2G2 BA:|2B2G2G2 dc||
|:Bdgf edcB|c2 A2A2 AB|cAAc BGGB|AGFE D2 GF|
ECGE DB,GD|ECGE DB,GD|EFGA BcAF|1G2B2G2 GA:|2G2B2G2 BA||
